X: 06064
T: MRS. WHYNOT'S JIG
C: Bob McQuillen 5 Nov 82
B: Bob's Note Book 6 #64
%R: jig
Z: 2021 John Chambers <jc:trillian.mit.edu>
M: 6/8
L: 1/8
K: A
AF \
| E2A cBA | F2A EAB | cBc Ace | dBB BAF |\
| E2A cBA | F2A EAB | cec ABc | B3 A :|
|: cd \
| efe cAc | AFA E2D | CEA cBA | GAB Bcd |\
| ece fdf | gfg afa | ecB ABc | B3 A :|
%%begintext align
%% One of my
%% favorite ladies is Phyllis Whynot -
%% She's at least as nice as Roger and I've
%% written _him_ a tune, so I figure this
%% is the least I can do, and about time, too!
%%endtext

%%sep 1 1 500

%%sep 1 1 500

